X: 39508
T: Tattoo, The
R: reel
M: 4/4
K: Bminor
|:f^ac'f - fac'e'|d'c'bc' d'b^ac'|f^ac'f - fac'e'|d'c'bd'c'2c'2|
f^ac'f - fac'e'|d'c'bd' c'b^af|efg^a - affg|1 fecdB2B2:|2 ^abc'd'b2b2||
|:b^abf - fedB|egfe decd|b^abf - fedB|efgb ^agfd|
Bdbf - fedB|egfe decd|efg^a - agfg|^abc'd'b2b2:|

